public/logo.svg

<svg width="172" height="160" viewBox="0 0 172 160" fill="none" xmlns="http://www.w3.org/2000/svg">
<path d="M84.0066 4.50826C78.1874 0.177636 70.8723 -1.10715 63.9252 0.976561L16.9326 15.074C7.25161 17.9801 0.743408 26.7203 0.743408 36.8317V137.271C0.743408 144.523 4.07991 151.165 9.89852 155.489C15.7182 159.82 23.0413 161.104 29.9805 159.021L65.0606 148.494C63.9636 144.876 63.4079 141.101 63.4079 137.271V91.6567C63.4079 82.0782 66.9012 72.93 73.2606 65.9125C77.9282 60.7429 83.9831 56.9291 90.75 54.8928L93.1622 54.2038V22.7337C93.1622 15.481 89.8257 8.83942 84.0061 4.50826H84.0066Z" fill="#6E55FF"/>
<path d="M171.484 77.5587V123.173C171.484 133.277 164.983 142.025 155.294 144.923L108.302 159.021C106.125 159.678 103.908 160 101.715 160C96.9136 160 92.2145 158.465 88.2199 155.489C86.3948 154.126 84.813 152.552 83.5127 150.789C81.9308 148.675 80.7479 146.318 80.0039 143.787C79.9959 143.787 79.9885 143.787 79.9805 143.795L79.9959 143.779C79.3933 141.704 79.0642 139.519 79.0642 137.271V91.6567C79.0642 86.973 80.4583 82.5795 82.918 78.9294C85.3772 75.2793 88.9014 72.3662 93.1622 70.635C93.8438 70.3609 94.5409 70.1097 95.2539 69.899L101.003 68.1759L142.247 55.8011C149.194 53.7173 156.509 55.0021 162.328 59.3333C168.148 63.6644 171.484 70.306 171.484 77.5587H171.484Z" fill="#6E55FF"/>
</svg>

<svg xmlns="http://www.w3.org/2000/svg" width="172" height="160" fill="none">
  <path fill="#6E55FF" d="M84.007 4.508C78.187.178 70.872-1.107 63.925.977L16.933 15.074C7.252 17.98.743 26.72.743 36.832V137.27c0 7.252 3.337 13.894 9.156 18.218 5.82 4.331 13.142 5.615 20.082 3.532l35.08-10.527a38.64 38.64 0 0 1-1.653-11.223V91.657c0-9.579 3.493-18.727 9.853-25.745 4.667-5.17 10.722-8.983 17.489-11.02l2.412-.688v-31.47c0-7.253-3.336-13.895-9.156-18.226Z"/>
  <path fill="#6E55FF" d="M171.484 77.559v45.614c0 10.104-6.501 18.852-16.19 21.75l-46.992 14.098a22.785 22.785 0 0 1-6.587.979c-4.801 0-9.5-1.535-13.495-4.511a22.677 22.677 0 0 1-4.707-4.7 22.022 22.022 0 0 1-3.51-7.002c-.007 0-.014 0-.022.008l.015-.016a23.313 23.313 0 0 1-.932-6.508V91.657c0-4.684 1.394-9.078 3.854-12.728a22.552 22.552 0 0 1 10.244-8.294 23.35 23.35 0 0 1 2.092-.736l5.749-1.723L142.247 55.8c6.947-2.084 14.262-.799 20.081 3.532 5.82 4.331 9.156 10.973 9.156 18.226Z"/>
</svg>
